X: 3
T: 72nd Highlanders' Farewell To Aberdeen, The
Z: ceolachan
S: https://thesession.org/tunes/6970#setting28287
R: barndance
M: 4/4
L: 1/8
K: Dmaj
|: B |A2 d2 d2 ef | gfed f3 f | g2 B2 B2 cd | efed dcBA |
A2 d2 d2 ef | gfed f3 f | g2 B2 cdec |[1 d4 d3 :|[2 d4 d2 ||
|: fg |a2 A2 A2 =c2 | B2 GB A3 B | A2 d2 dcde | f2 e2 e2 fg |
a2 A2 A2 =c2 | B2 GB A3 B | A2 d2 fedc |[1 d4 d2 :|[2 d4 d3 |]
